48x48/apps/dassault-systemes.draftsight.svg

<svg xmlns="http://www.w3.org/2000/svg" width="48" height="48" version="1.1">
 <path style="opacity:0.2" d="m 6.4842652,15.39039 a 2.4152693,2.0859144 75 0 0 -1.3895815,2.872559 l 6.6672543,24.882535 a 2.4152693,2.0859144 75 0 0 2.639692,1.792918 C 21.424574,43.056609 25.381233,34.87736 23.202317,26.745533 21.023399,18.613705 13.507207,13.508598 6.4842652,15.39039 Z"/>
 <path style="fill:#79b444" d="M 6.4842652,14.390391 A 2.4152693,2.0859144 75 0 0 5.0946837,17.26295 l 6.6672543,24.882535 a 2.4152693,2.0859144 75 0 0 2.639692,1.792918 C 21.424574,42.05661 25.381233,33.877361 23.202317,25.745534 21.023399,17.613706 13.507207,12.508599 6.4842652,14.390391 Z"/>
 <path style="opacity:0.2" d="m 10.890625,20.167578 c -0.03716,-0.0079 -0.07221,0.0093 -0.109375,0.002 L 15.734375,38.65 c 2.462133,-2.152872 3.830188,-6.16453 2.638672,-10.611329 -1.177742,-4.395391 -4.31144,-7.195271 -7.482422,-7.871093 z"/>
 <path style="fill:#f4f4f7" d="M 10.890625 19.167969 C 10.85347 19.160069 10.81841 19.177222 10.78125 19.169922 L 15.734375 37.650391 C 18.196508 35.497519 19.564563 31.485861 18.373047 27.039062 C 17.195305 22.643671 14.061607 19.843791 10.890625 19.167969 z"/>
 <path style="opacity:0.2;fill:#f4f4f7" d="M 9.1289062 14.003906 C 8.2470122 14.028524 7.3622427 14.155401 6.484375 14.390625 A 2.4152693 2.0859144 75 0 0 5.0488281 17.058594 A 2.4152693 2.0859144 75 0 1 6.484375 15.390625 C 13.507317 13.508833 21.024207 18.614266 23.203125 26.746094 C 23.564444 28.094554 23.741414 29.441536 23.779297 30.763672 C 23.829154 29.125849 23.656161 27.436846 23.203125 25.746094 C 21.296572 18.630744 15.302165 13.831579 9.1289062 14.003906 z"/>
 <path style="opacity:0.2" d="M 23.280429,5.0013831 A 2.3573949,2.6089771 0 0 0 21,7.6084009 L 21,42.391284 A 2.3573949,2.6089771 0 0 0 23.357159,45 l 17.285834,0 a 2.3573949,2.6089771 0 0 0 2.065583,-3.865519 L 25.422742,6.3515975 A 2.3573949,2.6089771 0 0 0 23.280429,5.0013831 Z"/>
 <path style="fill:#35aabd" d="M 23.280429,4.0013833 A 2.3573949,2.6089771 0 0 0 21,6.6084011 L 21,41.391284 A 2.3573949,2.6089771 0 0 0 23.357159,44 l 17.285834,0 a 2.3573949,2.6089771 0 0 0 2.065583,-3.865519 L 25.422742,5.3515977 A 2.3573949,2.6089771 0 0 0 23.280429,4.0013833 Z"/>
 <path style="opacity:0.2;fill:none;stroke:#000000;stroke-width:4;stroke-linejoin:round" d="m 32,27.999975 c 0,0 -6,0 -6,2 0,2 6,6 6,8 0,2 -6,2 -6,2"/>
 <path style="fill:none;stroke:#f4f4f7;stroke-width:4;stroke-linejoin:round" d="m 32,27 c 0,0 -6,0 -6,2 0,2 6,6 6,8 0,2 -6,2 -6,2"/>
 <path style="opacity:0.2;fill:#f4f4f7" d="M 23.28125 4.0019531 A 2.3573949 2.6089771 0 0 0 21 6.609375 L 21 7.609375 A 2.3573949 2.6089771 0 0 1 23.28125 5.0019531 A 2.3573949 2.6089771 0 0 1 25.421875 6.3515625 L 42.708984 41.134766 A 2.3573949 2.6089771 0 0 1 42.953125 41.892578 A 2.3573949 2.6089771 0 0 0 42.708984 40.134766 L 25.421875 5.3515625 A 2.3573949 2.6089771 0 0 0 23.28125 4.0019531 z"/>
</svg>

<svg xmlns="http://www.w3.org/2000/svg" width="48" height="48"><path style="opacity:.2" d="M6.484 15.39a2.415 2.086 75 0 0-1.39 2.873l6.668 24.882a2.415 2.086 75 0 0 2.64 1.793c7.023-1.881 10.98-10.06 8.8-18.192-2.179-8.132-9.695-13.237-16.718-11.356z"/><path style="fill:#79b444" d="M6.484 14.39a2.415 2.086 75 0 0-1.39 2.873l6.668 24.882a2.415 2.086 75 0 0 2.64 1.793c7.023-1.881 10.98-10.06 8.8-18.192-2.179-8.132-9.695-13.237-16.718-11.356z"/><path style="opacity:.2" d="M10.89 20.168c-.037-.008-.072.009-.109.002l4.953 18.48c2.463-2.153 3.83-6.165 2.639-10.611-1.178-4.396-4.311-7.196-7.482-7.871z"/><path style="fill:#f4f4f7" d="M10.89 19.168c-.037-.008-.072.01-.109.002l4.953 18.48c2.463-2.152 3.83-6.164 2.639-10.61-1.178-4.396-4.311-7.196-7.482-7.872z"/><path style="opacity:.2;fill:#f4f4f7" d="M9.129 14.004c-.882.025-1.767.151-2.645.387a2.415 2.086 75 0 0-1.435 2.668 2.415 2.086 75 0 1 1.435-1.668c7.023-1.882 14.54 3.223 16.72 11.355a17.41 17.41 0 0 1 .575 4.018 17.315 17.315 0 0 0-.576-5.018c-1.906-7.115-7.9-11.914-14.074-11.742z"/><path style="opacity:.2" d="M23.28 5.001A2.357 2.609 0 0 0 21 7.608v34.783A2.357 2.609 0 0 0 23.357 45h17.286a2.357 2.609 0 0 0 2.066-3.866L25.423 6.352a2.357 2.609 0 0 0-2.143-1.35z"/><path style="fill:#35aabd" d="M23.28 4.001A2.357 2.609 0 0 0 21 6.608v34.783A2.357 2.609 0 0 0 23.357 44h17.286a2.357 2.609 0 0 0 2.066-3.866L25.423 5.352a2.357 2.609 0 0 0-2.143-1.35z"/><path style="opacity:.2;fill:none;stroke:#000;stroke-width:4;stroke-linejoin:round" d="M32 28s-6 0-6 2 6 6 6 8-6 2-6 2"/><path style="fill:none;stroke:#f4f4f7;stroke-width:4;stroke-linejoin:round" d="M32 27s-6 0-6 2 6 6 6 8-6 2-6 2"/><path style="opacity:.2;fill:#f4f4f7" d="M23.281 4.002A2.357 2.609 0 0 0 21 6.609v1a2.357 2.609 0 0 1 2.281-2.607 2.357 2.609 0 0 1 2.14 1.35L42.71 41.135a2.357 2.609 0 0 1 .244.758 2.357 2.609 0 0 0-.244-1.758L25.422 5.352a2.357 2.609 0 0 0-2.14-1.35z"/></svg>
